dist/img/svg/quotes.svg

<svg width="65" height="50" viewBox="0 0 65 50" fill="none" xmlns="http://www.w3.org/2000/svg">
<path d="M14.5068 50C10.5528 50 7.13317 48.6885 4.24784 46.0656C1.41595 43.388 0 39.4262 0 34.1803C0 31.4481 0.40074 28.4426 1.20222 25.1639C2.0037 21.8306 3.39293 18.388 5.36991 14.8361C7.40033 11.2295 10.2055 7.6776 13.7855 4.18033C15.3884 2.54099 16.8311 1.44809 18.1134 0.901641C19.3958 0.300547 20.4644 0 21.3194 0C22.2277 0 23.0025 0.273223 23.6437 0.819671C24.2848 1.31148 24.6054 2.13115 24.6054 3.27869C24.6054 4.26229 24.3116 5.2459 23.7238 6.22951C23.1895 7.15847 22.0941 8.33334 20.4377 9.7541C16.6441 13.0874 14.1595 16.9399 12.984 21.3115C13.1977 21.2568 13.4381 21.2295 13.7053 21.2295C13.9725 21.1749 14.2396 21.1475 14.5068 21.1475C18.5676 21.1475 21.9338 22.5137 24.6054 25.2459C27.3305 27.9781 28.693 31.4208 28.693 35.5738C28.693 39.5628 27.3305 42.9781 24.6054 45.8197C21.9338 48.6066 18.5676 50 14.5068 50ZM50.8138 50C46.8598 50 43.4402 48.6885 40.5549 46.0656C37.723 43.388 36.307 39.4262 36.307 34.1803C36.307 31.4481 36.7078 28.4426 37.5092 25.1639C38.3107 21.8306 39.7 18.388 41.6769 14.8361C43.7074 11.2295 46.5125 7.6776 50.0925 4.18033C51.6954 2.54099 53.1381 1.44809 54.4205 0.901641C55.7028 0.300547 56.7715 0 57.6264 0C58.5347 0 59.3095 0.273223 59.9507 0.819671C60.5919 1.31148 60.9125 2.13115 60.9125 3.27869C60.9125 4.26229 60.6186 5.2459 60.0308 6.22951C59.4965 7.15847 58.4011 8.33334 56.7448 9.7541C52.9511 13.0874 50.4665 16.9399 49.291 21.3115C49.5047 21.2568 49.7452 21.2295 50.0123 21.2295C50.2795 21.1749 50.5466 21.1475 50.8138 21.1475C54.8746 21.1475 58.2409 22.5137 60.9125 25.2459C63.6375 27.9781 65 31.4208 65 35.5738C65 39.5628 63.6375 42.9781 60.9125 45.8197C58.2409 48.6066 54.8746 50 50.8138 50Z" fill="currentColor"/>
</svg>

<svg width="65" height="50" viewBox="0 0 65 50" fill="none" xmlns="http://www.w3.org/2000/svg"><path d="M14.507 50c-3.954 0-7.374-1.312-10.26-3.934C1.417 43.388 0 39.426 0 34.18c0-2.732.4-5.737 1.202-9.016.802-3.333 2.19-6.776 4.168-10.328C7.4 11.23 10.206 7.678 13.786 4.18c1.602-1.639 3.045-2.732 4.327-3.278C19.396.3 20.464 0 21.32 0c.909 0 1.684.273 2.325.82.64.491.961 1.311.961 2.459 0 .983-.293 1.967-.881 2.95-.535.93-1.63 2.104-3.286 3.525-3.794 3.333-6.278 7.186-7.454 11.557a2.95 2.95 0 01.721-.081c.268-.055.535-.082.802-.082 4.06 0 7.427 1.366 10.098 4.098 2.726 2.732 4.088 6.175 4.088 10.328 0 3.989-1.363 7.404-4.088 10.246C21.934 48.607 18.568 50 14.507 50zm36.307 0c-3.954 0-7.374-1.312-10.26-3.934-2.831-2.678-4.247-6.64-4.247-11.886 0-2.732.4-5.737 1.202-9.016.802-3.333 2.191-6.776 4.168-10.328 2.03-3.607 4.836-7.158 8.416-10.656 1.602-1.639 3.045-2.732 4.327-3.278C55.703.3 56.772 0 57.627 0c.909 0 1.684.273 2.325.82.64.491.962 1.311.962 2.459 0 .983-.294 1.967-.882 2.95-.535.93-1.63 2.104-3.286 3.525-3.794 3.333-6.278 7.186-7.454 11.557a2.95 2.95 0 01.721-.081 3.97 3.97 0 01.802-.082c4.06 0 7.427 1.366 10.099 4.098C63.638 27.978 65 31.42 65 35.574c0 3.989-1.362 7.404-4.087 10.246-2.672 2.787-6.038 4.18-10.1 4.18z" fill="currentColor"/></svg>
